icons/link.svg

<?xml version="1.0" standalone="no"?><!-- Generator: Gravit.io --><svg xmlns="http://www.w3.org/2000/svg" xmlns:xlink="http://www.w3.org/1999/xlink" width="96" height="96"><path d=" M 52.24264068711928 38.10050506338833 C 51.464823227814065 38.87832252269354 50.47487373415291 39.302586591405465 49.41421356237308 39.2318759132868 C 48.35355339059326 39.302586591405465 47.363603896932105 38.87832252269354 46.58578643762689 38.10050506338833 C 45.807968978321696 37.32268760408313 45.38370490960976 36.332738110421964 45.45441558772842 35.27207793864214 C 45.38370490960976 34.211417766862326 45.807968978321696 33.221468273201154 46.58578643762689 32.44365081389596 L 48 31.02943725152286 L 31.02943725152285 14.058874503045722 L 14.058874503045715 31.029437251522854 L 31.02943725152285 48 L 32.44365081389594 46.58578643762691 C 33.221468273201154 45.807968978321696 34.21141776686231 45.383704909609776 35.27207793864214 45.454415587728434 C 36.33273811042196 45.38370490960977 37.32268760408312 45.807968978321696 38.100505063388326 46.5857864376269 C 38.87832252269353 47.363603896932105 39.30258659140546 48.35355339059327 39.2318759132868 49.41421356237309 C 39.30258659140546 50.474873734152915 38.87832252269352 51.46482322781408 38.100505063388326 52.242640687119284 L 36.68629150101523 53.656854249492376 C 35.201367260523476 55.141778489984134 33.150757595082496 56.06101730552664 31.02943725152285 56.06101730552664 C 28.908116907963212 56.06101730552664 26.857507242522217 55.141778489984134 25.372583002030467 53.65685424949238 L 8.402020253553331 36.68629150101523 C 6.917096013061581 35.20136726052348 5.997857197519071 33.150757595082496 5.9978571975190675 31.02943725152285 C 5.997857197519071 28.908116907963212 6.917096013061581 26.857507242522228 8.402020253553331 25.372583002030474 L 25.372583002030474 8.402020253553339 C 26.857507242522225 6.917096013061588 28.908116907963212 5.997857197519075 31.029437251522857 5.997857197519075 C 33.150757595082496 5.997857197519075 35.20136726052348 6.917096013061588 36.68629150101523 8.402020253553339 L 53.65685424949237 25.372583002030478 C 55.14177848998412 26.857507242522228 56.06101730552663 28.908116907963215 56.06101730552663 31.02943725152286 C 56.06101730552663 33.1507575950825 55.14177848998412 35.20136726052349 53.65685424949237 36.68629150101524 L 52.24264068711928 38.10050506338833 Z  M 63.55634918610403 49.41421356237309 C 62.77853172679883 50.1920310216783 61.788582233137674 50.616295090390224 60.727922061357845 50.545584412271566 C 59.66726188957803 50.616295090390224 58.67731239591686 50.1920310216783 57.89949493661166 49.41421356237309 C 57.12167747730646 48.636396103067895 56.697413408594514 47.64644660940672 56.768124086713186 46.5857864376269 C 56.69741340859453 45.525126265847085 57.12167747730646 44.53517677218592 57.89949493661166 43.757359312880716 L 59.31370849898475 42.343145750507624 C 60.7986327394765 40.85822151001587 62.84924240491749 39.93898269447335 64.97056274847714 39.93898269447335 C 67.09188309203677 39.93898269447335 69.14249275747775 40.858221510015866 70.6274169979695 42.34314575050762 L 87.59797974644665 59.31370849898476 C 89.08290398693839 60.7986327394765 90.00214280248092 62.8492424049175 90.00214280248092 64.97056274847714 C 90.00214280248092 67.09188309203678 89.0829039869384 69.14249275747777 87.59797974644665 70.62741699796952 L 70.62741699796952 87.59797974644665 C 69.14249275747775 89.08290398693842 67.09188309203678 90.00214280248092 64.97056274847714 90.00214280248093 C 62.84924240491749 90.00214280248093 60.79863273947649 89.0829039869384 59.31370849898475 87.59797974644667 L 42.3431457505076 70.62741699796952 C 40.85822151001585 69.14249275747777 39.938982694473346 67.09188309203678 39.93898269447334 64.97056274847714 C 39.93898269447335 62.84924240491749 40.85822151001586 60.79863273947652 42.34314575050762 59.31370849898476 L 43.75735931288071 57.89949493661167 C 44.535176772185906 57.12167747730646 45.52512626584708 56.697413408594535 46.58578643762689 56.768124086713186 C 47.64644660940671 56.69741340859453 48.63639610306788 57.12167747730646 49.41421356237308 57.89949493661166 C 50.19203102167829 58.677312395916864 50.616295090390224 59.66726188957803 50.54558441227155 60.72792206135786 C 50.616295090390224 61.788582233137674 50.19203102167829 62.77853172679884 49.41421356237308 63.55634918610404 L 47.999999999999986 64.97056274847714 L 64.97056274847714 81.94112549695427 L 81.94112549695427 64.97056274847714 L 64.97056274847714 48 L 63.55634918610403 49.41421356237309 Z  M 33.85786437626904 39.51471862576143 C 33.08004691696384 38.73690116645622 32.65578284825191 37.74695167279506 32.72649352637057 36.68629150101523 C 32.65578284825191 35.62563132923542 33.08004691696384 34.635681835574246 33.85786437626904 33.85786437626905 C 34.635681835574246 33.08004691696384 35.62563132923541 32.65578284825192 36.68629150101523 32.726493526370575 C 37.746951672795056 32.65578284825192 38.73690116645622 33.08004691696384 39.514718625761425 33.85786437626905 L 62.14213562373095 56.48528137423857 C 62.91995308303615 57.263098833543765 63.34421715174807 58.25304832720493 63.27350647362941 59.31370849898476 C 63.34421715174807 60.374368670764575 62.91995308303615 61.36431816442575 62.14213562373095 62.14213562373095 C 61.36431816442574 62.919953083036155 60.37436867076457 63.344217151748076 59.31370849898475 63.27350647362942 C 58.25304832720492 63.344217151748076 57.26309883354375 62.91995308303615 56.485281374238554 62.14213562373095 L 33.85786437626904 39.51471862576143 Z " fill-rule="evenodd" fill="#454545" stroke="none"/><mask id="_mask_4CqZYaI2oDnU5cPGpY3b40xkUyhbfHa4"><path d=" M 52.24264068711928 38.10050506338833 C 51.464823227814065 38.87832252269354 50.47487373415291 39.302586591405465 49.41421356237308 39.2318759132868 C 48.35355339059326 39.302586591405465 47.363603896932105 38.87832252269354 46.58578643762689 38.10050506338833 C 45.807968978321696 37.32268760408313 45.38370490960976 36.332738110421964 45.45441558772842 35.27207793864214 C 45.38370490960976 34.211417766862326 45.807968978321696 33.221468273201154 46.58578643762689 32.44365081389596 L 48 31.02943725152286 L 31.02943725152285 14.058874503045722 L 14.058874503045715 31.029437251522854 L 31.02943725152285 48 L 32.44365081389594 46.58578643762691 C 33.221468273201154 45.807968978321696 34.21141776686231 45.383704909609776 35.27207793864214 45.454415587728434 C 36.33273811042196 45.38370490960977 37.32268760408312 45.807968978321696 38.100505063388326 46.5857864376269 C 38.87832252269353 47.363603896932105 39.30258659140546 48.35355339059327 39.2318759132868 49.41421356237309 C 39.30258659140546 50.474873734152915 38.87832252269352 51.46482322781408 38.100505063388326 52.242640687119284 L 36.68629150101523 53.656854249492376 C 35.201367260523476 55.141778489984134 33.150757595082496 56.06101730552664 31.02943725152285 56.06101730552664 C 28.908116907963212 56.06101730552664 26.857507242522217 55.141778489984134 25.372583002030467 53.65685424949238 L 8.402020253553331 36.68629150101523 C 6.917096013061581 35.20136726052348 5.997857197519071 33.150757595082496 5.9978571975190675 31.02943725152285 C 5.997857197519071 28.908116907963212 6.917096013061581 26.857507242522228 8.402020253553331 25.372583002030474 L 25.372583002030474 8.402020253553339 C 26.857507242522225 6.917096013061588 28.908116907963212 5.997857197519075 31.029437251522857 5.997857197519075 C 33.150757595082496 5.997857197519075 35.20136726052348 6.917096013061588 36.68629150101523 8.402020253553339 L 53.65685424949237 25.372583002030478 C 55.14177848998412 26.857507242522228 56.06101730552663 28.908116907963215 56.06101730552663 31.02943725152286 C 56.06101730552663 33.1507575950825 55.14177848998412 35.20136726052349 53.65685424949237 36.68629150101524 L 52.24264068711928 38.10050506338833 Z  M 63.55634918610403 49.41421356237309 C 62.77853172679883 50.1920310216783 61.788582233137674 50.616295090390224 60.727922061357845 50.545584412271566 C 59.66726188957803 50.616295090390224 58.67731239591686 50.1920310216783 57.89949493661166 49.41421356237309 C 57.12167747730646 48.636396103067895 56.697413408594514 47.64644660940672 56.768124086713186 46.5857864376269 C 56.69741340859453 45.525126265847085 57.12167747730646 44.53517677218592 57.89949493661166 43.757359312880716 L 59.31370849898475 42.343145750507624 C 60.7986327394765 40.85822151001587 62.84924240491749 39.93898269447335 64.97056274847714 39.93898269447335 C 67.09188309203677 39.93898269447335 69.14249275747775 40.858221510015866 70.6274169979695 42.34314575050762 L 87.59797974644665 59.31370849898476 C 89.08290398693839 60.7986327394765 90.00214280248092 62.8492424049175 90.00214280248092 64.97056274847714 C 90.00214280248092 67.09188309203678 89.0829039869384 69.14249275747777 87.59797974644665 70.62741699796952 L 70.62741699796952 87.59797974644665 C 69.14249275747775 89.08290398693842 67.09188309203678 90.00214280248092 64.97056274847714 90.00214280248093 C 62.84924240491749 90.00214280248093 60.79863273947649 89.0829039869384 59.31370849898475 87.59797974644667 L 42.3431457505076 70.62741699796952 C 40.85822151001585 69.14249275747777 39.938982694473346 67.09188309203678 39.93898269447334 64.97056274847714 C 39.93898269447335 62.84924240491749 40.85822151001586 60.79863273947652 42.34314575050762 59.31370849898476 L 43.75735931288071 57.89949493661167 C 44.535176772185906 57.12167747730646 45.52512626584708 56.697413408594535 46.58578643762689 56.768124086713186 C 47.64644660940671 56.69741340859453 48.63639610306788 57.12167747730646 49.41421356237308 57.89949493661166 C 50.19203102167829 58.677312395916864 50.616295090390224 59.66726188957803 50.54558441227155 60.72792206135786 C 50.616295090390224 61.788582233137674 50.19203102167829 62.77853172679884 49.41421356237308 63.55634918610404 L 47.999999999999986 64.97056274847714 L 64.97056274847714 81.94112549695427 L 81.94112549695427 64.97056274847714 L 64.97056274847714 48 L 63.55634918610403 49.41421356237309 Z  M 33.85786437626904 39.51471862576143 C 33.08004691696384 38.73690116645622 32.65578284825191 37.74695167279506 32.72649352637057 36.68629150101523 C 32.65578284825191 35.62563132923542 33.08004691696384 34.635681835574246 33.85786437626904 33.85786437626905 C 34.635681835574246 33.08004691696384 35.62563132923541 32.65578284825192 36.68629150101523 32.726493526370575 C 37.746951672795056 32.65578284825192 38.73690116645622 33.08004691696384 39.514718625761425 33.85786437626905 L 62.14213562373095 56.48528137423857 C 62.91995308303615 57.263098833543765 63.34421715174807 58.25304832720493 63.27350647362941 59.31370849898476 C 63.34421715174807 60.374368670764575 62.91995308303615 61.36431816442575 62.14213562373095 62.14213562373095 C 61.36431816442574 62.919953083036155 60.37436867076457 63.344217151748076 59.31370849898475 63.27350647362942 C 58.25304832720492 63.344217151748076 57.26309883354375 62.91995308303615 56.485281374238554 62.14213562373095 L 33.85786437626904 39.51471862576143 Z " fill-rule="evenodd" fill="white" stroke="none"/></mask><path d=" M 52.24264068711928 38.10050506338833 C 51.464823227814065 38.87832252269354 50.47487373415291 39.302586591405465 49.41421356237308 39.2318759132868 C 48.35355339059326 39.302586591405465 47.363603896932105 38.87832252269354 46.58578643762689 38.10050506338833 C 45.807968978321696 37.32268760408313 45.38370490960976 36.332738110421964 45.45441558772842 35.27207793864214 C 45.38370490960976 34.211417766862326 45.807968978321696 33.221468273201154 46.58578643762689 32.44365081389596 L 48 31.02943725152286 L 31.02943725152285 14.058874503045722 L 14.058874503045715 31.029437251522854 L 31.02943725152285 48 L 32.44365081389594 46.58578643762691 C 33.221468273201154 45.807968978321696 34.21141776686231 45.383704909609776 35.27207793864214 45.454415587728434 C 36.33273811042196 45.38370490960977 37.32268760408312 45.807968978321696 38.100505063388326 46.5857864376269 C 38.87832252269353 47.363603896932105 39.30258659140546 48.35355339059327 39.2318759132868 49.41421356237309 C 39.30258659140546 50.474873734152915 38.87832252269352 51.46482322781408 38.100505063388326 52.242640687119284 L 36.68629150101523 53.656854249492376 C 35.201367260523476 55.141778489984134 33.150757595082496 56.06101730552664 31.02943725152285 56.06101730552664 C 28.908116907963212 56.06101730552664 26.857507242522217 55.141778489984134 25.372583002030467 53.65685424949238 L 8.402020253553331 36.68629150101523 C 6.917096013061581 35.20136726052348 5.997857197519071 33.150757595082496 5.9978571975190675 31.02943725152285 C 5.997857197519071 28.908116907963212 6.917096013061581 26.857507242522228 8.402020253553331 25.372583002030474 L 25.372583002030474 8.402020253553339 C 26.857507242522225 6.917096013061588 28.908116907963212 5.997857197519075 31.029437251522857 5.997857197519075 C 33.150757595082496 5.997857197519075 35.20136726052348 6.917096013061588 36.68629150101523 8.402020253553339 L 53.65685424949237 25.372583002030478 C 55.14177848998412 26.857507242522228 56.06101730552663 28.908116907963215 56.06101730552663 31.02943725152286 C 56.06101730552663 33.1507575950825 55.14177848998412 35.20136726052349 53.65685424949237 36.68629150101524 L 52.24264068711928 38.10050506338833 Z  M 63.55634918610403 49.41421356237309 C 62.77853172679883 50.1920310216783 61.788582233137674 50.616295090390224 60.727922061357845 50.545584412271566 C 59.66726188957803 50.616295090390224 58.67731239591686 50.1920310216783 57.89949493661166 49.41421356237309 C 57.12167747730646 48.636396103067895 56.697413408594514 47.64644660940672 56.768124086713186 46.5857864376269 C 56.69741340859453 45.525126265847085 57.12167747730646 44.53517677218592 57.89949493661166 43.757359312880716 L 59.31370849898475 42.343145750507624 C 60.7986327394765 40.85822151001587 62.84924240491749 39.93898269447335 64.97056274847714 39.93898269447335 C 67.09188309203677 39.93898269447335 69.14249275747775 40.858221510015866 70.6274169979695 42.34314575050762 L 87.59797974644665 59.31370849898476 C 89.08290398693839 60.7986327394765 90.00214280248092 62.8492424049175 90.00214280248092 64.97056274847714 C 90.00214280248092 67.09188309203678 89.0829039869384 69.14249275747777 87.59797974644665 70.62741699796952 L 70.62741699796952 87.59797974644665 C 69.14249275747775 89.08290398693842 67.09188309203678 90.00214280248092 64.97056274847714 90.00214280248093 C 62.84924240491749 90.00214280248093 60.79863273947649 89.0829039869384 59.31370849898475 87.59797974644667 L 42.3431457505076 70.62741699796952 C 40.85822151001585 69.14249275747777 39.938982694473346 67.09188309203678 39.93898269447334 64.97056274847714 C 39.93898269447335 62.84924240491749 40.85822151001586 60.79863273947652 42.34314575050762 59.31370849898476 L 43.75735931288071 57.89949493661167 C 44.535176772185906 57.12167747730646 45.52512626584708 56.697413408594535 46.58578643762689 56.768124086713186 C 47.64644660940671 56.69741340859453 48.63639610306788 57.12167747730646 49.41421356237308 57.89949493661166 C 50.19203102167829 58.677312395916864 50.616295090390224 59.66726188957803 50.54558441227155 60.72792206135786 C 50.616295090390224 61.788582233137674 50.19203102167829 62.77853172679884 49.41421356237308 63.55634918610404 L 47.999999999999986 64.97056274847714 L 64.97056274847714 81.94112549695427 L 81.94112549695427 64.97056274847714 L 64.97056274847714 48 L 63.55634918610403 49.41421356237309 Z  M 33.85786437626904 39.51471862576143 C 33.08004691696384 38.73690116645622 32.65578284825191 37.74695167279506 32.72649352637057 36.68629150101523 C 32.65578284825191 35.62563132923542 33.08004691696384 34.635681835574246 33.85786437626904 33.85786437626905 C 34.635681835574246 33.08004691696384 35.62563132923541 32.65578284825192 36.68629150101523 32.726493526370575 C 37.746951672795056 32.65578284825192 38.73690116645622 33.08004691696384 39.514718625761425 33.85786437626905 L 62.14213562373095 56.48528137423857 C 62.91995308303615 57.263098833543765 63.34421715174807 58.25304832720493 63.27350647362941 59.31370849898476 C 63.34421715174807 60.374368670764575 62.91995308303615 61.36431816442575 62.14213562373095 62.14213562373095 C 61.36431816442574 62.919953083036155 60.37436867076457 63.344217151748076 59.31370849898475 63.27350647362942 C 58.25304832720492 63.344217151748076 57.26309883354375 62.91995308303615 56.485281374238554 62.14213562373095 L 33.85786437626904 39.51471862576143 Z " fill-rule="evenodd" fill="none" stroke="none" stroke-width="16" mask="url(#_mask_4CqZYaI2oDnU5cPGpY3b40xkUyhbfHa4)"/></svg>

<svg xmlns="http://www.w3.org/2000/svg" width="96" height="96"><path d="M52.243 38.1c-.778.778-1.768 1.203-2.829 1.132-1.06.07-2.05-.354-2.828-1.131-.778-.778-1.202-1.768-1.132-2.829-.07-1.06.354-2.05 1.132-2.828L48 31.029 31.03 14.06l-16.971 16.97L31.029 48l1.415-1.414c.777-.778 1.767-1.202 2.828-1.132 1.06-.07 2.05.354 2.829 1.132.777.778 1.202 1.768 1.13 2.828.072 1.06-.353 2.05-1.13 2.829l-1.415 1.414c-1.485 1.485-3.535 2.404-5.657 2.404-2.12 0-4.171-.92-5.656-2.404L8.402 36.687C6.917 35.2 5.998 33.15 5.998 31.028c0-2.12.92-4.171 2.404-5.656l16.97-16.971c1.486-1.485 3.536-2.404 5.657-2.404 2.122 0 4.172.92 5.657 2.404l16.97 16.97c1.486 1.486 2.405 3.536 2.405 5.657 0 2.122-.92 4.172-2.404 5.657l-1.414 1.415zm11.313 11.314c-.777.778-1.767 1.202-2.828 1.132-1.06.07-2.05-.354-2.829-1.132-.777-.778-1.202-1.768-1.13-2.828-.072-1.06.353-2.05 1.13-2.829l1.415-1.414c1.485-1.485 3.535-2.404 5.657-2.404 2.12 0 4.171.92 5.656 2.404l16.971 16.97c1.485 1.486 2.404 3.536 2.404 5.658 0 2.12-.92 4.171-2.404 5.656l-16.97 16.971c-1.486 1.485-3.536 2.404-5.657 2.404-2.122 0-4.172-.92-5.657-2.404l-16.97-16.97c-1.486-1.486-2.405-3.536-2.405-5.657 0-2.122.92-4.172 2.404-5.657l1.414-1.415c.778-.777 1.768-1.202 2.829-1.13 1.06-.072 2.05.353 2.828 1.13.778.778 1.202 1.768 1.132 2.829.07 1.06-.354 2.05-1.132 2.828L48 64.971l16.97 16.97 16.971-16.97L64.971 48l-1.415 1.414zm-29.698-9.9c-.778-.777-1.202-1.767-1.132-2.828-.07-1.06.354-2.05 1.132-2.828.778-.778 1.768-1.202 2.828-1.132 1.061-.07 2.05.354 2.829 1.132l22.627 22.627c.778.778 1.202 1.768 1.132 2.829.07 1.06-.354 2.05-1.132 2.828-.778.778-1.768 1.202-2.828 1.132-1.061.07-2.05-.354-2.829-1.132L33.858 39.515z" fill-rule="evenodd" fill="#454545"/></svg>
